X: 1
T: Jimie Ritchie's
M: 6/8
L: 1/8
R: jig
K: Dmaj
|: def A2f | def a2f | e3 Aec | e3 gfe |
def A2f | def a2f | e3 gec | Add d2f :|
|: a2f fed | def a2f | e3 Aec | e3 gfe |
a2f fed | def a2f | e3 gec | Add d2f :|
|:d3 A2d | Adf a2f | e3 A2e | Ace gfe |
d3 A2d | Adf a2f | e3 gec | Add d2f :|
|: afa fdd | a2f  fed | eAA fAA | g2f ecA |
afa fdd | a2f fed | e3 gec | Add d2f :|
